X:1
T:Lady Madelina Sinclair
M:C
L:1/8
Q:80
C:
S:Strathspey
K:HP
[| f|
{gef}e3/2A/2{gcd}c/2{e}A3/2{GdG}e2{gfg}f2|
{gef}e3/2A/2{gef}e3/2c/2{gcd}c3/2{e}B/2{G}B3/2f/2|
{gef}e3/2A/2{gcd}c/2{e}A3/2{GdG}e2{ag}a2|  !
A/2{GAG}A3/2{gcd}c/2{e}B3/2{gBd}B/2{e}A3/2{GAG}A3/2f/2{gef}e3/2A/2{gcd}c
/2{e}A3/2{GdG}e2{gfg}f2|
{gef}e3/2A/2{gef}e3/2c/2{gcd}c3/2{e}B/2{G}B3/2c/2|
{GdG}e2{gfg}f3/2e/2{GdG}e2{ag}a2|  !
A/2{GAG}A3/2{gcd}c/2{e}B3/2{gBd}B/2{e}A3/2{GAG}A|] [|
e|
{ag}a3/2g/2{fg}f3/2e/2{g}f/2g3/2{ag}a2|
A/2{GAG}A3/2{gef}e3/2c/2{gcd}c/2{e}B3/2{G}B3/2e/2|  !
{ag}a3/2g/2{fg}f3/2e/2{g}f/2g3/4{ag}a2|
A/2{GAG}A3/2{gcd}c/2{e}B3/2{gBd}B/2{e}A3/2{GAG}Ae{ag}a3/2f/2{gf}g3/2e/2{
g}f3/2d/2{gef}e3/2d/2|
{g}c/2a3/2g/2a3/2B3/2{d}B/2{e}B3/2{d}c/2|  !
{GdG}e2{gfg}f3/2e/2{GdG}e2{ag}a2|
A/2{GAG}A3/2{gcd}c/2{e}B3/2{gBd}B/2{e}A3/2{GAG}A|]

